X:182
T:Polska fr{\aa}n Borgholm
R:sl\"angpolska
H:efter Joh. Magnusson, Borgholm. Jfr #88.
A:\"Oland
Z:id:hn-sp-182
M:3/4
L:1/16
K:Am
E2 | A2AB cBcd e2A^c | e2A^c e2g2 e2a2 | a4 a^faf g2e2 |
[M:2/4] e2=c2 c2B2 |[M:3/4] EABA B2A2 z2 :||: z2 | Ace2 Ace>c e2d2 |
E^GB2 EGd>G B2A>E | A2AB cBcd e2c2 |[M:2/4] c2B2 E2^G2 |
[M:3/4] B2A2 A4 z2 :|

